src/basic/900/u21bb-skip-ahead.svg

<svg width="5" height="8" viewBox="0 0 5 8" fill="none" xmlns="http://www.w3.org/2000/svg">
<path fill-rule="evenodd" clip-rule="evenodd" d="M2.27634,3.0201c-0.72234,0.10799 -1.27634,0.73102 -1.27634,1.48344c0,0.82843 0.67157,1.5 1.5,1.5c0.82843,0 1.5,-0.67157 1.5,-1.5h1c0,1.38071 -1.11929,2.5 -2.5,2.5c-1.38071,0 -2.5,-1.11929 -2.5,-2.5c0,-1.31363 1.01317,-2.39063 2.30071,-2.49217l-0.65426,-0.65427l0.7071,-0.70711l1.5,1.5l0.35356,0.35356l-0.35356,0.35355l-1.5,1.5l-0.7071,-0.70711z" fill="black"/>
</svg>

<svg width="5" height="8" viewBox="0 0 5 8" fill="none" xmlns="http://www.w3.org/2000/svg">
<path fill-rule="evenodd" clip-rule="evenodd" d="M2.27634 3.0201C1.554 3.12809 1 3.75112 1 4.50354C1 5.33197 1.67157 6.00354 2.5 6.00354C3.32843 6.00354 4 5.33197 4 4.50354H5C5 5.88425 3.88071 7.00354 2.5 7.00354C1.11929 7.00354 0 5.88425 0 4.50354C0 3.18991 1.01317 2.11291 2.30071 2.01137L1.64645 1.3571L2.35355 0.649994L3.85355 2.14999L4.20711 2.50355L3.85355 2.8571L2.35355 4.3571L1.64645 3.64999L2.27634 3.0201Z" fill="black"/>
</svg>
